X: 1
T: the Jug O Punch
R: reel
M: 4/4
L: 1/8
K: Ddor
|:\
"Dm"A,DDC DEFG | "C"AGGG AcAG | "Am"EA,A,A, C2EF | "C"G2AG "Am"FDEC |
"Dm"A,DDF EDD2 | (3FED ED "C"C2EG | cBcd edcG | FDEC D4 :|
|:\
"Dm"Adde fedf | "Am"efed cAAG | "C"AGAB cBcd | "Am"eaag ecAA |
"Dm"d2de fedf | "Am"efed cAAC | "C"c3A "G"B3G | "Dm"FD "C"EC "Dm"D4 :|
